X: 17
T: Kid On The Mountain, The
Z: Erik-Fiddler
S: https://thesession.org/tunes/52#setting51765
R: slip jig
M: 9/8
L: 1/8
K: Emin
D|:E3 FEF G2 F|~E(3E/D/E/E BcA BGD|~E(3E/D/E/E FEF G2 A|BAG FAG FED:|
|:BGB AFD [G,2G2] D|[G,G]AB dge dBA|BGB AFA [G,2G2] A|BAG FAG FED:|
|:~g(3g/f/g/g eBe [B2e2] f|~g(3g/f/g/g efg afd|~g(3g/f/g/g eBe ~(3g/g/g/g a|bag fag fed:|
|:e(3B/B/B/B e2f ~g(3g/f/g/g |e(3B/B/B/B efg afd|e(3B/B/B/B e2f ~(3g/g/g/g a|bag fag fed:|
|:edB dBA [G,3G3]|GAB dge dBA|edB dBA G2A|BAG FAG FED:|

